src/lib/packages/icons/src/assets/filled/puzzle.svg

<svg width="24" height="24" viewBox="0 0 24 24" fill="none" xmlns="http://www.w3.org/2000/svg">
<path d="M20.5 12H19C17.895 12 17 12.895 17 14C17 15.105 17.895 16 19 16H20.5C20.776 16 21 16.224 21 16.5V19C21 20.105 20.105 21 19 21H15.5C15.224 21 15 20.776 15 20.5V19C15 17.895 14.105 17 13 17C11.895 17 11 17.895 11 19V20.5C11 20.776 10.776 21 10.5 21H8C6.895 21 6 20.105 6 19V16.5C6 16.224 5.776 16 5.5 16H4C2.895 16 2 15.105 2 14C2 12.895 2.895 12 4 12H5.5C5.776 12 6 11.776 6 11.5V9C6 7.895 6.895 7 8 7H10.5C10.776 7 11 6.776 11 6.5V5C11 3.895 11.895 3 13 3C14.105 3 15 3.895 15 5V6.5C15 6.776 15.224 7 15.5 7H19C20.105 7 21 7.895 21 9V11.5C21 11.776 20.776 12 20.5 12Z" fill="currentColor"/>
</svg>

<svg xmlns="http://www.w3.org/2000/svg" width="24" height="24" fill="none"><path fill="currentColor" d="M20.5 12H19a2 2 0 1 0 0 4h1.5a.5.5 0 0 1 .5.5V19a2 2 0 0 1-2 2h-3.5a.5.5 0 0 1-.5-.5V19a2 2 0 1 0-4 0v1.5a.5.5 0 0 1-.5.5H8a2 2 0 0 1-2-2v-2.5a.5.5 0 0 0-.5-.5H4a2 2 0 1 1 0-4h1.5a.5.5 0 0 0 .5-.5V9a2 2 0 0 1 2-2h2.5a.5.5 0 0 0 .5-.5V5a2 2 0 1 1 4 0v1.5a.5.5 0 0 0 .5.5H19a2 2 0 0 1 2 2v2.5a.5.5 0 0 1-.5.5Z"/></svg>
